assets/icons/shop.svg

<svg width="24" height="24" viewBox="0 0 24 24" fill="none" xmlns="http://www.w3.org/2000/svg">
<path fill-rule="evenodd" clip-rule="evenodd" d="M17.6007 7.94185H6.47927C5.84559 7.94185 5.32113 8.43455 5.2816 9.06699L4.80842 16.638C4.6573 19.0559 6.57759 21.0999 9.00024 21.0999H15.0797C17.5023 21.0999 19.4226 19.0559 19.2715 16.638L18.7983 9.06699C18.7588 8.43455 18.2343 7.94185 17.6007 7.94185ZM6.47927 6.14185C4.89508 6.14185 3.58393 7.37361 3.48511 8.95471L3.01192 16.5257C2.79604 19.9799 5.53931 22.9 9.00024 22.9H15.0797C18.5406 22.9 21.2839 19.9799 21.068 16.5257L20.5948 8.95471C20.496 7.37361 19.1849 6.14185 17.6007 6.14185H6.47927Z" fill="black"/>
<path fill-rule="evenodd" clip-rule="evenodd" d="M12.2761 2.8C11.0812 2.8 10.1125 3.76867 10.1125 4.96359V6.1419H8.3125V4.96359C8.3125 2.77456 10.0871 1 12.2761 1C14.4651 1 16.2397 2.77456 16.2397 4.96359V6.1419H14.4397V4.96359C14.4397 3.76867 13.471 2.8 12.2761 2.8Z" fill="black"/>
<path fill-rule="evenodd" clip-rule="evenodd" d="M12.2757 12.3118C13.4706 12.3118 14.4393 11.3431 14.4393 10.1482L14.4393 9.91256C14.4393 9.41551 14.8422 9.01256 15.3393 9.01256C15.8363 9.01256 16.2393 9.41551 16.2393 9.91256L16.2393 10.1482C16.2393 12.3373 14.4647 14.1118 12.2757 14.1118C10.0866 14.1118 8.31208 12.3373 8.31208 10.1482L8.31208 9.91257C8.31208 9.41551 8.71502 9.01257 9.21208 9.01257C9.70913 9.01257 10.1121 9.41551 10.1121 9.91257L10.1121 10.1482C10.1121 11.3431 11.0807 12.3118 12.2757 12.3118Z" fill="black"/>
</svg>

<svg xmlns="http://www.w3.org/2000/svg" width="24" height="24" fill="none"><path fill="#000" fill-rule="evenodd" d="M17.6 7.942H6.48a1.2 1.2 0 0 0-1.198 1.125l-.474 7.571A4.2 4.2 0 0 0 9 21.1h6.08a4.2 4.2 0 0 0 4.191-4.462l-.473-7.571a1.2 1.2 0 0 0-1.197-1.125Zm-11.12-1.8a3 3 0 0 0-2.995 2.813l-.473 7.57A6 6 0 0 0 9 22.9h6.08a6 6 0 0 0 5.988-6.374l-.473-7.571A3 3 0 0 0 17.6 6.142H6.479Z" clip-rule="evenodd"/><path fill="#000" fill-rule="evenodd" d="M12.276 2.8a2.164 2.164 0 0 0-2.163 2.164v1.178h-1.8V4.964a3.964 3.964 0 0 1 7.927 0v1.178h-1.8V4.964A2.164 2.164 0 0 0 12.276 2.8ZM12.276 12.312a2.164 2.164 0 0 0 2.163-2.164v-.235a.9.9 0 1 1 1.8 0v.235a3.964 3.964 0 1 1-7.927 0v-.235a.9.9 0 1 1 1.8 0v.235c0 1.195.969 2.164 2.164 2.164Z" clip-rule="evenodd"/></svg>
